actions/22x22-light/debug-run.svg

<svg viewBox="0 0 22 22" xmlns="http://www.w3.org/2000/svg"><path d="m14.77288 11.34068v1.509152h-1.509152v1.509152h1.509152v1.509152l3.018304-2.263728zm-11.2047295-6.4138965h14.8636995c.314756 0 .56815.2534017.56815.5681505v10.936916c0 .314756-.253394.56815-.56815.56815h-14.8636995c-.3147563 0-.5681505-.253394-.5681505-.56815v-10.936916c0-.3147488.2533942-.5681505.5681505-.5681505z" fill="#4d4d4d"/></svg>

<?xml version="1.0" encoding="UTF-8" standalone="no"?>
<svg
   xmlns:dc="http://purl.org/dc/elements/1.1/"
   xmlns:cc="http://creativecommons.org/ns#"
   xmlns:rdf="http://www.w3.org/1999/02/22-rdf-syntax-ns#"
   xmlns:svg="http://www.w3.org/2000/svg"
   xmlns="http://www.w3.org/2000/svg"
   xmlns:sodipodi="http://sodipodi.sourceforge.net/DTD/sodipodi-0.dtd"
   xmlns:inkscape="http://www.inkscape.org/namespaces/inkscape"
   viewBox="0 0 22 22"
   id="svg2"
   version="1.1"
   inkscape:version="0.91 r13725"
   sodipodi:docname="debug-run.svg">
  <metadata
     id="metadata10">
    <rdf:RDF>
      <cc:Work
         rdf:about="">
        <dc:format>image/svg+xml</dc:format>
        <dc:type
           rdf:resource="http://purl.org/dc/dcmitype/StillImage" />
      </cc:Work>
    </rdf:RDF>
  </metadata>
  <sodipodi:namedview
     pagecolor="#ffffff"
     bordercolor="#666666"
     borderopacity="1"
     objecttolerance="10"
     gridtolerance="10"
     guidetolerance="10"
     inkscape:pageopacity="0"
     inkscape:pageshadow="2"
     inkscape:window-width="640"
     inkscape:window-height="480"
     id="namedview8"
     showgrid="false"
     inkscape:zoom="7.2386364"
     inkscape:cx="-6.8099574"
     inkscape:cy="9.1618"
     inkscape:current-layer="svg2" />
  <defs
     id="defs3051">
    <style
       type="text/css"
       id="current-color-scheme">
      .ColorScheme-Text {
        color:#4d4d4d
      }
      </style>
  </defs>
  <path
     style="color:#4d4d4d;fill:currentColor;fill-opacity:1;stroke:none"
     class="ColorScheme-Text"
     d="m 14.77288,11.34068 0,1.509152 -1.509152,0 0,1.509152 1.509152,0 0,1.509152 3.018304,-2.263728 z M 3.5681505,4.9267835 l 14.8636995,0 C 18.746606,4.9267835 19,5.1801852 19,5.494934 L 19,16.43185 C 19,16.746606 18.746606,17 18.43185,17 L 3.5681505,17 C 3.2533942,17 3,16.746606 3,16.43185 L 3,5.494934 C 3,5.1801852 3.2533942,4.9267835 3.5681505,4.9267835 Z"
     id="path6"
     inkscape:connector-curvature="0" />
</svg>
